JackSchool/img/steps/03.svg

<svg width="44" height="27" viewBox="0 0 44 27" fill="none" xmlns="http://www.w3.org/2000/svg">
<path d="M11.11 26.56C8.94 26.56 7.015 26.0583 5.335 25.055C3.67833 24.0283 2.37167 22.5583 1.415 20.645C0.481667 18.7083 0.015 16.41 0.015 13.75C0.015 11.09 0.481667 8.80333 1.415 6.89C2.37167 4.95333 3.67833 3.48333 5.335 2.48C7.015 1.45333 8.94 0.939999 11.11 0.939999C13.28 0.939999 15.1933 1.45333 16.85 2.48C18.53 3.48333 19.8367 4.95333 20.77 6.89C21.7267 8.80333 22.205 11.09 22.205 13.75C22.205 16.41 21.7267 18.7083 20.77 20.645C19.8367 22.5583 18.53 24.0283 16.85 25.055C15.1933 26.0583 13.28 26.56 11.11 26.56ZM11.11 19.945C12.9767 19.945 13.91 17.88 13.91 13.75C13.91 9.62 12.9767 7.555 11.11 7.555C9.24333 7.555 8.31 9.62 8.31 13.75C8.31 17.88 9.24333 19.945 11.11 19.945ZM37.6616 11.195C39.5516 11.6617 40.9983 12.5133 42.0016 13.75C43.0283 14.9633 43.5416 16.4333 43.5416 18.16C43.5416 19.63 43.1333 21.0067 42.3166 22.29C41.5233 23.55 40.2866 24.5767 38.6066 25.37C36.9266 26.1633 34.8383 26.56 32.3416 26.56C30.6149 26.56 28.8883 26.3733 27.1616 26C25.4583 25.6267 23.9649 25.0783 22.6816 24.355L25.4816 18.265C26.4849 18.8483 27.5583 19.2917 28.7016 19.595C29.8683 19.8983 30.9883 20.05 32.0616 20.05C33.0183 20.05 33.7883 19.8867 34.3716 19.56C34.9549 19.2333 35.2466 18.7667 35.2466 18.16C35.2466 17.04 34.2783 16.48 32.3416 16.48H29.0866V11.405L32.6916 7.73H23.9416V1.5H42.2116V6.575L37.6616 11.195Z" fill="#FFC601"/>
</svg>

<svg width="44" height="27" fill="none" xmlns="http://www.w3.org/2000/svg"><path d="M11.11 26.56c-2.17 0-4.095-.502-5.775-1.505-1.657-1.027-2.963-2.497-3.92-4.41-.933-1.937-1.4-4.235-1.4-6.895 0-2.66.467-4.947 1.4-6.86.957-1.937 2.263-3.407 3.92-4.41C7.015 1.453 8.94.94 11.11.94c2.17 0 4.083.513 5.74 1.54 1.68 1.003 2.987 2.473 3.92 4.41.957 1.913 1.435 4.2 1.435 6.86s-.478 4.958-1.435 6.895c-.933 1.913-2.24 3.383-3.92 4.41-1.657 1.003-3.57 1.505-5.74 1.505zm0-6.615c1.867 0 2.8-2.065 2.8-6.195 0-4.13-.933-6.195-2.8-6.195-1.867 0-2.8 2.065-2.8 6.195 0 4.13.933 6.195 2.8 6.195zm26.552-8.75c1.89.467 3.336 1.318 4.34 2.555 1.026 1.213 1.54 2.683 1.54 4.41 0 1.47-.409 2.847-1.225 4.13-.794 1.26-2.03 2.287-3.71 3.08-1.68.793-3.769 1.19-6.265 1.19a24.45 24.45 0 01-5.18-.56c-1.704-.373-3.197-.922-4.48-1.645l2.8-6.09a13.015 13.015 0 003.22 1.33c1.166.303 2.286.455 3.36.455.956 0 1.726-.163 2.31-.49.583-.327.875-.793.875-1.4 0-1.12-.969-1.68-2.905-1.68h-3.255v-5.075l3.605-3.675h-8.75V1.5h18.27v5.075l-4.55 4.62z" fill="#FFC601"/></svg>
